public/icons/SQLite.svg

<svg width="256" height="256" viewBox="0 0 256 256" fill="none" xmlns="http://www.w3.org/2000/svg">
<g clip-path="url(#clip0_307_145)">
<path d="M60 0C26.8629 0 0 26.8629 0 60V196C0 229.137 26.8629 256 60 256H168.46C166.681 250.757 165.288 242.454 164.504 232.977C163.829 224.825 163.605 215.806 163.979 207.107C163.878 205.821 163.817 204.985 163.817 204.985C163.817 204.985 161.943 192.375 159.246 182.016C158.052 177.418 156.693 173.26 155.266 170.85C154.531 169.607 155.346 164.499 157.397 156.934C158.597 159.005 163.66 167.866 164.677 170.722C165.822 173.95 166.062 174.875 166.062 174.875C166.062 174.875 163.285 160.603 158.729 152.275C159.728 148.908 160.921 145.187 162.271 141.209C163.849 143.976 167.436 150.33 168.732 153.341C168.852 153.62 168.96 153.882 169.039 154.098C169.223 154.62 169.378 155.063 169.517 155.469C170.248 157.587 170.426 158.261 170.426 158.261C170.426 158.261 170.155 156.875 169.651 154.737C169.438 153.834 169.173 152.772 168.878 151.641C167.73 147.232 165.986 141.46 163.753 136.937C169.485 107.143 187.934 68.1305 207.81 47.0689C209.523 45.2554 211.244 43.5577 212.968 42.0275C224.587 31.7274 236.36 28.2483 246.083 36.9095C253.117 43.1773 255.995 51.8346 256 61.8004V60C256 26.8629 229.137 0 196 0H60Z" fill="#D9D9D9"/>
<path d="M60 0C26.8629 0 0 26.8629 0 60V196C0 229.137 26.8629 256 60 256H168.46C166.681 250.757 165.288 242.454 164.504 232.977C163.829 224.825 163.605 215.806 163.979 207.107C163.878 205.821 163.817 204.985 163.817 204.985C163.817 204.985 161.943 192.375 159.246 182.016C158.052 177.418 156.693 173.26 155.266 170.85C154.531 169.607 155.346 164.499 157.397 156.934C158.597 159.005 163.66 167.866 164.677 170.722C165.822 173.95 166.062 174.875 166.062 174.875C166.062 174.875 163.285 160.603 158.729 152.275C159.728 148.908 160.921 145.187 162.271 141.209C163.849 143.976 167.436 150.33 168.732 153.341C168.852 153.62 168.96 153.882 169.039 154.098C169.223 154.62 169.378 155.063 169.517 155.469C170.248 157.587 170.426 158.261 170.426 158.261C170.426 158.261 170.155 156.875 169.651 154.737C169.438 153.834 169.173 152.772 168.878 151.641C167.73 147.232 165.986 141.46 163.753 136.937C169.485 107.143 187.934 68.1305 207.81 47.0689C209.523 45.2554 211.244 43.5577 212.968 42.0275C224.587 31.7274 236.36 28.2483 246.083 36.9095C253.117 43.1773 255.995 51.8346 256 61.8004V60C256 26.8629 229.137 0 196 0H60Z" fill="url(#paint0_linear_307_145)"/>
<path d="M246.083 36.9095C236.36 28.2483 224.587 31.7274 212.968 42.0275C211.244 43.5577 209.523 45.2554 207.81 47.0689C187.934 68.1305 169.485 107.143 163.753 136.937C165.986 141.46 167.73 147.232 168.878 151.641C169.173 152.772 169.438 153.834 169.651 154.737C170.155 156.875 170.426 158.261 170.426 158.261C170.426 158.261 170.248 157.587 169.517 155.469C169.378 155.063 169.223 154.62 169.039 154.098C168.96 153.882 168.852 153.62 168.732 153.341C167.436 150.33 163.849 143.976 162.271 141.209C160.921 145.187 159.728 148.908 158.729 152.275C163.285 160.603 166.062 174.875 166.062 174.875C166.062 174.875 165.822 173.95 164.677 170.722C163.66 167.866 158.597 159.005 157.397 156.934C155.346 164.499 154.531 169.607 155.266 170.85C156.693 173.26 158.052 177.418 159.246 182.016C161.943 192.375 163.817 204.985 163.817 204.985C163.817 204.985 163.878 205.821 163.979 207.107C163.605 215.806 163.829 224.825 164.504 232.977C165.397 243.768 167.079 253.039 169.223 258L170.678 257.207C167.53 247.433 166.251 234.623 166.811 219.849C167.658 197.268 172.861 170.036 182.473 141.653C198.713 98.8063 221.245 64.4287 241.867 48.0113C223.071 64.9667 197.632 119.85 190.017 140.174C181.491 162.933 175.448 184.291 171.807 204.753C178.09 185.57 198.405 177.324 198.405 177.324C198.405 177.324 208.369 165.05 220.013 147.514C213.038 149.103 201.585 151.823 197.748 153.433C192.09 155.804 190.565 156.613 190.565 156.613C190.565 156.613 208.895 145.463 224.621 140.415C246.249 106.39 269.811 58.0531 246.083 36.9095" fill="#003B57"/>
<path d="M28.5202 49C25.4571 49 22.9663 49.8947 21.0568 51.6832C19.1473 53.4733 18.1786 55.8197 18.1786 58.6947C18.1786 60.1847 18.4192 61.5432 18.8932 62.788C19.3672 64.0354 20.1048 65.1909 21.0965 66.235C22.0882 67.2801 24.0732 68.6997 27.0315 70.5046C30.6616 72.6912 33.0372 74.4658 34.1773 75.8514C35.3183 77.2358 35.8844 78.6867 35.8844 80.1993C35.8844 82.2246 35.2087 83.8412 33.8201 85.0565C32.429 86.2722 30.5687 86.8779 28.2622 86.8779C25.8294 86.8779 23.7103 86.0317 21.8905 84.3514C20.0707 82.6686 19.1521 80.4429 19.1314 77.6532H18V87.7788H19.1314C19.4768 86.82 19.9548 86.3295 20.5804 86.3295C20.8814 86.3295 21.5864 86.5343 22.6845 86.917C25.3562 87.855 27.55 88.3076 29.2745 88.3076C32.2464 88.3076 34.7832 87.2806 36.8967 85.1935C39.0071 83.1074 40.0727 80.591 40.0727 77.6532C40.0727 75.3752 39.3692 73.3485 37.9885 71.5818C36.6077 69.813 33.9225 67.7556 29.9097 65.3929C26.4567 63.3459 24.2153 61.6787 23.1807 60.379C22.1446 59.0812 21.6126 57.6456 21.6126 56.0703C21.6126 54.3664 22.247 52.9977 23.4983 51.977C24.7496 50.9554 26.3892 50.4493 28.4408 50.4493C30.7497 50.4493 32.6743 51.1254 34.1972 52.4862C35.7185 53.8493 36.5982 55.7383 36.857 58.1659H37.9885V49.3917H36.9364C36.8078 49.839 36.6887 50.125 36.5791 50.2535C36.4727 50.3812 36.2679 50.4493 35.9638 50.4493C35.5978 50.4493 34.9451 50.2973 34.0186 49.9988C32.0336 49.3392 30.2035 49 28.5202 49ZM65.4999 49C61.7674 49 58.3787 49.868 55.3171 51.6048C52.2507 53.3385 49.8235 55.7459 48.0323 58.8122C46.2419 61.8782 45.3526 65.1346 45.3526 68.6048C45.3526 73.2671 46.8993 77.4206 50.0173 81.0611C53.1368 84.6993 56.8749 86.9663 61.2124 87.8376C62.2041 88.3474 63.6229 89.6635 65.48 91.7938C67.573 94.1978 69.3435 95.9318 70.7997 96.9643C72.2543 97.9974 73.8248 98.7545 75.4842 99.2558C77.1452 99.7549 78.9412 100 80.8832 100C83.235 100 85.3406 99.5967 87.1954 98.7661L86.7785 97.7477C85.7019 98.1309 84.5538 98.3157 83.3446 98.3157C81.7034 98.3157 80.0448 97.7817 78.3822 96.7097C76.722 95.635 74.6457 93.5846 72.1693 90.5599C71.0053 89.1106 70.2018 88.1962 69.7477 87.8376C74.4933 86.9232 78.3957 84.6538 81.439 81.0219C84.4816 77.3916 86.0044 73.2484 86.0044 68.6048C86.0044 63.0913 84.0163 58.4576 80.0694 54.6797C76.1194 50.9015 71.2618 49 65.4999 49ZM88.5848 49L88.6444 50.1947C91.1295 50.1947 92.5214 50.917 92.8326 52.3687C92.9485 52.8881 93.0017 53.8471 93.0113 55.2281L92.9914 81.6486C92.9708 83.6219 92.6858 84.8818 92.1379 85.4286C91.5893 85.9715 90.6619 86.3115 89.3193 86.447L89.2598 87.6417H114.032L114.667 81.6486H113.536C113.213 83.2812 112.472 84.4508 111.293 85.1152C110.11 85.7845 108.02 86.1141 105 86.1141H102.658C99.9412 86.1141 98.3691 85.1449 97.9539 83.1959C97.8681 82.8103 97.8387 82.3968 97.8348 81.9424L97.934 55.2281C97.9334 53.258 98.1857 51.9378 98.7081 51.2915C99.2361 50.6475 100.188 50.2871 101.566 50.1947L101.507 49H88.5849H88.5848ZM65.8969 50.4493C70.1065 50.4493 73.5437 52.0852 76.1988 55.3848C78.853 58.6855 80.1687 63.2094 80.1687 68.9378C80.1687 74.366 78.834 78.7123 76.1591 81.9816C73.4841 85.2498 69.9239 86.8779 65.4999 86.8779C61.2497 86.8779 57.803 85.199 55.1583 81.8249C52.5159 78.4507 51.2082 74.0701 51.2082 68.6832C51.2082 63.1476 52.5318 58.7164 55.198 55.4044C57.8626 52.0959 61.4307 50.4493 65.8969 50.4493ZM122.865 56.129C122.261 56.129 121.8 56.3304 121.456 56.7362C121.103 57.1404 120.995 57.63 121.118 58.2247C121.237 58.8015 121.567 59.307 122.091 59.7327C122.612 60.158 123.174 60.379 123.778 60.379C124.362 60.379 124.808 60.158 125.128 59.7327C125.448 59.307 125.545 58.8015 125.426 58.2247C125.302 57.63 124.984 57.1404 124.493 56.7362C123.996 56.3304 123.449 56.129 122.865 56.129ZM139.201 60.1832C138.174 64.08 135.949 66.1888 132.532 66.5288L132.571 67.6452H136.561L136.482 80.8456C136.488 83.1025 136.558 84.605 136.72 85.3698C137.113 87.2007 138.325 88.1313 140.352 88.1313C143.286 88.1313 146.364 86.368 149.582 82.8433L148.61 82.0207C146.286 84.3419 144.231 85.5069 142.437 85.5069C141.334 85.5069 140.65 84.8811 140.392 83.6463C140.321 83.3464 140.293 82.996 140.293 82.5887L140.333 67.6452H146.426L146.367 65.8629H140.352V60.1832H139.201H139.201ZM162.762 65.1578C159.354 65.1578 156.581 66.7905 154.426 70.0346C152.281 73.2842 151.617 76.8845 152.461 80.8456C152.957 83.1658 153.945 84.9641 155.458 86.2316C156.968 87.4985 158.884 88.1313 161.174 88.1313C163.307 88.1313 166.277 87.5985 167.526 86.5253C168.779 85.4528 169.934 83.7152 171 81.3353L170.146 80.4539C168.446 83.5413 165.013 85.0956 162.425 85.0956C158.866 85.0956 156.687 83.1692 155.875 79.3376C155.769 78.8485 155.69 78.323 155.636 77.7707C159.87 77.1094 163.078 75.9383 165.244 74.2454C167.407 72.5516 169.58 70.7562 169.174 68.8594C168.932 67.7324 168.339 66.8462 167.427 66.1763C166.503 65.5067 164.103 65.1578 162.762 65.1578ZM125.505 65.2949L118.161 66.9597V68.2523L120.701 67.9389C121.932 67.9389 122.656 68.4888 122.885 69.5841C122.962 69.9507 123.01 70.4654 123.024 71.1118L122.944 82.9608C122.924 84.6005 122.739 85.5537 122.369 85.8399C121.995 86.1266 121.009 86.2707 119.411 86.2707L119.371 87.3871H131.023L131.003 86.2707C129.384 86.2707 128.335 86.1447 127.867 85.8986C127.407 85.6541 127.091 85.2091 126.954 84.5276C126.848 84.0365 126.802 83.1903 126.795 82.0207L126.835 65.2949H125.505H125.505ZM160.897 67.4885C161.606 67.4885 162.291 67.7587 162.981 68.2915C163.661 68.8224 164.076 69.4128 164.211 70.0541C164.876 73.2043 162.045 75.3822 155.676 76.5956C155.494 74.2986 155.898 72.2134 156.927 70.3283C157.948 68.4451 159.278 67.4885 160.897 67.4885Z" fill="#003B57"/>
</g>
<defs>
<linearGradient id="paint0_linear_307_145" x1="147.614" y1="5.2389" x2="147.614" y2="241.763" gradientUnits="userSpaceOnUse">
<stop stop-color="#97D9F6"/>
<stop offset="0.920245" stop-color="#0F80CC"/>
<stop offset="1" stop-color="#0F80CC"/>
</linearGradient>
<clipPath id="clip0_307_145">
<rect width="256" height="256" rx="60" fill="white"/>
</clipPath>
</defs>
</svg>

<svg xmlns="http://www.w3.org/2000/svg" width="256" height="256" fill="none"><g clip-path="url(#a)"><path fill="#D9D9D9" d="M60 0C26.863 0 0 26.863 0 60v136c0 33.137 26.863 60 60 60h108.46c-1.779-5.243-3.172-13.546-3.956-23.023-.675-8.152-.899-17.171-.525-25.87-.101-1.286-.162-2.122-.162-2.122s-1.874-12.61-4.571-22.969c-1.194-4.598-2.553-8.756-3.98-11.166-.735-1.243.08-6.351 2.131-13.916 1.2 2.071 6.263 10.932 7.28 13.788 1.145 3.228 1.385 4.153 1.385 4.153s-2.777-14.272-7.333-22.6a303 303 0 0 1 3.542-11.066c1.578 2.767 5.165 9.121 6.461 12.132.12.279.228.541.307.757.184.522.339.965.478 1.371.731 2.118.909 2.792.909 2.792s-.271-1.386-.775-3.524c-.213-.903-.478-1.965-.773-3.096-1.148-4.409-2.892-10.181-5.125-14.704 5.732-29.794 24.181-68.807 44.057-89.868 1.713-1.814 3.434-3.511 5.158-5.041 11.619-10.3 23.392-13.78 33.115-5.118 7.034 6.267 9.912 14.925 9.917 24.89V60c0-33.137-26.863-60-60-60z"/><path fill="url(#b)" d="M60 0C26.863 0 0 26.863 0 60v136c0 33.137 26.863 60 60 60h108.46c-1.779-5.243-3.172-13.546-3.956-23.023-.675-8.152-.899-17.171-.525-25.87-.101-1.286-.162-2.122-.162-2.122s-1.874-12.61-4.571-22.969c-1.194-4.598-2.553-8.756-3.98-11.166-.735-1.243.08-6.351 2.131-13.916 1.2 2.071 6.263 10.932 7.28 13.788 1.145 3.228 1.385 4.153 1.385 4.153s-2.777-14.272-7.333-22.6a303 303 0 0 1 3.542-11.066c1.578 2.767 5.165 9.121 6.461 12.132.12.279.228.541.307.757.184.522.339.965.478 1.371.731 2.118.909 2.792.909 2.792s-.271-1.386-.775-3.524c-.213-.903-.478-1.965-.773-3.096-1.148-4.409-2.892-10.181-5.125-14.704 5.732-29.794 24.181-68.807 44.057-89.868 1.713-1.814 3.434-3.511 5.158-5.041 11.619-10.3 23.392-13.78 33.115-5.118 7.034 6.267 9.912 14.925 9.917 24.89V60c0-33.137-26.863-60-60-60z"/><path fill="#003B57" d="M246.083 36.91c-9.723-8.662-21.496-5.183-33.115 5.118-1.724 1.53-3.445 3.227-5.158 5.04-19.876 21.063-38.325 60.075-44.057 89.869 2.233 4.523 3.977 10.295 5.125 14.704.295 1.131.56 2.193.773 3.096.504 2.138.775 3.524.775 3.524s-.178-.674-.909-2.792c-.139-.406-.294-.849-.478-1.371a16 16 0 0 0-.307-.757c-1.296-3.011-4.883-9.365-6.461-12.132a303 303 0 0 0-3.542 11.066c4.556 8.328 7.333 22.6 7.333 22.6s-.24-.925-1.385-4.153c-1.017-2.856-6.08-11.717-7.28-13.788-2.051 7.565-2.866 12.673-2.131 13.916 1.427 2.41 2.786 6.568 3.98 11.166 2.697 10.359 4.571 22.969 4.571 22.969s.061.836.162 2.122c-.374 8.699-.15 17.718.525 25.87.893 10.791 2.575 20.062 4.719 25.023l1.455-.793c-3.148-9.774-4.427-22.584-3.867-37.358.847-22.581 6.05-49.813 15.662-78.196 16.24-42.847 38.772-77.224 59.394-93.642-18.796 16.956-44.235 71.839-51.85 92.163-8.526 22.759-14.569 44.117-18.21 64.579 6.283-19.183 26.598-27.429 26.598-27.429s9.964-12.274 21.608-29.81c-6.975 1.589-18.428 4.309-22.265 5.919-5.658 2.371-7.183 3.18-7.183 3.18s18.33-11.15 34.056-16.198c21.628-34.025 45.19-82.362 21.462-103.505M28.52 49c-3.063 0-5.554.895-7.463 2.683-1.91 1.79-2.878 4.137-2.878 7.012 0 1.49.24 2.848.714 4.093.474 1.247 1.212 2.403 2.203 3.447.992 1.045 2.977 2.465 5.936 4.27 3.63 2.186 6.005 3.96 7.145 5.346 1.141 1.385 1.707 2.836 1.707 4.348 0 2.026-.675 3.642-2.064 4.858-1.391 1.215-3.251 1.82-5.558 1.82-2.433 0-4.552-.845-6.372-2.526-1.82-1.682-2.738-3.908-2.759-6.698H18V87.78h1.131c.346-.959.824-1.45 1.45-1.45.3 0 1.005.205 2.104.588 2.671.938 4.865 1.39 6.59 1.39 2.971 0 5.508-1.026 7.622-3.114 2.11-2.086 3.176-4.602 3.176-7.54 0-2.278-.704-4.305-2.084-6.071-1.381-1.769-4.066-3.826-8.08-6.19-3.452-2.046-5.694-3.713-6.728-5.013-1.036-1.298-1.568-2.733-1.568-4.309 0-1.704.634-3.072 1.885-4.093 1.252-1.022 2.891-1.528 4.943-1.528 2.309 0 4.233.676 5.756 2.037 1.521 1.363 2.401 3.252 2.66 5.68h1.132v-8.774h-1.053q-.192.67-.357.861c-.106.128-.311.196-.615.196-.366 0-1.019-.152-1.945-.45-1.985-.66-3.815-.999-5.499-.999m36.98 0c-3.733 0-7.121.868-10.183 2.605-3.066 1.734-5.493 4.14-7.285 7.207-1.79 3.066-2.68 6.323-2.68 9.793 0 4.662 1.547 8.816 4.665 12.456 3.12 3.638 6.858 5.905 11.195 6.777.992.51 2.41 1.826 4.268 3.956 2.093 2.404 3.864 4.138 5.32 5.17a16 16 0 0 0 4.684 2.292c1.661.499 3.457.744 5.4.744 2.351 0 4.457-.403 6.311-1.234l-.416-1.018c-1.077.383-2.225.568-3.434.568-1.642 0-3.3-.534-4.963-1.606-1.66-1.075-3.736-3.125-6.213-6.15-1.164-1.45-1.967-2.364-2.421-2.722 4.745-.915 8.648-3.184 11.691-6.816 3.043-3.63 4.565-7.774 4.565-12.417 0-5.514-1.988-10.147-5.935-13.925C76.12 50.9 71.262 49 65.5 49m23.085 0 .06 1.195c2.484 0 3.876.722 4.188 2.174.115.52.169 1.478.178 2.86l-.02 26.42q-.03 2.96-.853 3.78c-.549.543-1.476.882-2.819 1.018l-.06 1.195h24.773l.635-5.993h-1.131c-.323 1.632-1.064 2.802-2.243 3.466-1.183.67-3.273 1-6.293 1h-2.342c-2.717 0-4.289-.97-4.704-2.92a6 6 0 0 1-.12-1.253l.1-26.714c0-1.97.252-3.29.774-3.937.528-.643 1.48-1.004 2.858-1.096L101.507 49zm-22.688 1.45c4.21 0 7.647 1.635 10.302 4.935s3.97 7.824 3.97 13.553q.001 8.14-4.01 13.044c-2.675 3.268-6.235 4.896-10.66 4.896-4.25 0-7.696-1.679-10.34-5.053-2.643-3.374-3.95-7.755-3.95-13.142 0-5.535 1.323-9.967 3.989-13.279 2.665-3.308 6.233-4.955 10.699-4.955m56.968 5.679c-.604 0-1.065.201-1.409.607-.353.404-.461.894-.338 1.489.119.576.449 1.082.973 1.508.521.425 1.083.646 1.687.646.584 0 1.03-.221 1.35-.646q.478-.64.298-1.508c-.124-.595-.442-1.085-.933-1.489-.497-.406-1.044-.607-1.628-.607m16.336 4.054c-1.027 3.897-3.252 6.006-6.669 6.346l.039 1.116h3.99l-.079 13.2c.006 2.258.076 3.76.238 4.525.393 1.83 1.605 2.761 3.632 2.761q4.402 0 9.23-5.288l-.972-.822c-2.324 2.32-4.379 3.486-6.173 3.486-1.103 0-1.787-.626-2.045-1.86-.071-.3-.099-.651-.099-1.058l.04-14.944h6.093l-.059-1.782h-6.015v-5.68zm23.561 4.975c-3.408 0-6.181 1.632-8.336 4.877-2.145 3.25-2.809 6.85-1.965 10.81.496 2.32 1.484 4.12 2.997 5.387 1.51 1.267 3.426 1.9 5.716 1.9 2.133 0 5.103-.534 6.352-1.607 1.253-1.072 2.408-2.81 3.474-5.19l-.854-.881c-1.7 3.087-5.133 4.642-7.721 4.642-3.559 0-5.738-1.927-6.55-5.758a14 14 0 0 1-.239-1.567c4.234-.662 7.442-1.833 9.608-3.526 2.163-1.693 4.336-3.489 3.93-5.386-.242-1.127-.835-2.013-1.747-2.683-.924-.67-3.324-1.018-4.665-1.018m-37.257.137-7.344 1.665v1.292l2.54-.313c1.231 0 1.955.55 2.184 1.645.077.367.125.881.139 1.528l-.08 11.849c-.02 1.64-.205 2.593-.575 2.879q-.561.43-2.958.43l-.04 1.117h11.652l-.02-1.116c-1.619 0-2.668-.126-3.136-.372-.46-.245-.776-.69-.913-1.371-.106-.492-.152-1.338-.159-2.507l.04-16.726zm35.392 2.194c.709 0 1.394.27 2.084.802.68.531 1.095 1.122 1.23 1.763.665 3.15-2.166 5.328-8.535 6.542-.182-2.297.222-4.383 1.251-6.268 1.021-1.883 2.351-2.84 3.97-2.84"/></g><defs><linearGradient id="b" x1="147.614" x2="147.614" y1="5.239" y2="241.763" gradientUnits="userSpaceOnUse"><stop stop-color="#97D9F6"/><stop offset=".92" stop-color="#0F80CC"/><stop offset="1" stop-color="#0F80CC"/></linearGradient><clipPath id="a"><rect width="256" height="256" fill="#fff" rx="60"/></clipPath></defs></svg>
